X:1
T:Title
%%score 1 2
L:1/8
Q:1/4=108
M:4/4
K:Bb
V:1 treble nm="Grand Piano, Soprano"
V:2 bass nm="Choir Pad, Whitechapel, G. Root, 1871"
V:1
 [B,D]3 [CE] [DF]2 [FB]2 | [EA]2 [DB]2 [Fc]4 | [DB]3 [Fc] [Fd]2 [Ec]2 | [DB]2 [CA]2 [DB]4 | %4
w: By~George~Frederick~Root,~1871 * * *||||
 [B,D]3 [CE] [DF]2 [FB]2 | [EA]2 [DB]2 [Fc]4 | [DB]3 [Fc] [Fd]2 [Ec]2 | [DB]2 [CA]2 [DB]4 | %8
w: ||||
 [df]3 [Bd] [df][Bd][Ac][Bd] | [ce]4 [Ac]4 | [Fd]3 [DB] [Fd][DB][CA][DB] | [Fc]4 F4 | %12
w: ||||
 [DB]3 [DB] [DB][DB][EB][FB] | [GB]6 z2 | [Ge]3 [Ge] [Fd][Ec][DB][CA] | [DB]8 |] %16
w: ||||
V:2
 [B,,B,]3 [B,,B,] [B,,B,]2 [D,B,]2 | [C,F,]2 [B,,B,]2 [F,A,]4 | [G,B,]3 [F,A,] B,2 [E,G,]2 | %3
 F,2 F,2 [B,,F,]4 | [B,,B,]3 [B,,B,] [B,,B,]2 [D,B,]2 | [C,F,]2 [B,,B,]2 [F,A,]4 | %6
 [G,B,]3 [F,A,] B,2 [E,G,]2 | F,2 F,2 [B,,F,]4 | B,3 B, B,B,B,B, | [F,A,]4 [F,C]4 | %10
 [B,,B,]3 [B,,B,] [B,,B,][B,,B,][B,,B,][B,,B,] | [F,A,]4 [F,A,]4 | %12
 [B,,B,]3 [B,,B,] [B,,B,][B,,B,][C,B,][D,B,] | [E,B,]6 z2 | [E,C]3 [E,C] F,F,F,F, | [B,,F,]8 |] %16

